X:91
T: Fred Finn's
Z: Piano Box Version by Martin Fleischmann
H: Created 2014-03-16 /  Last Modified 2014-04-01
M: 4/4
L: 1/8
R: reel
K:Dmaj
|: "D"A3F ABde | 3(fed) ef dfed | "G"B2EF GABG  | "D"G-A2F DE FG| 
"D"A3B ABde | fdef dfed  | "G"B2dB "A"ABde |1 fa 3(gfe) fedB :|2 fa 3(gfe) fdAd||
|: fdad bdae | f2ba fede | "bm"fbba b2ba | f2ba "A"feee |
fdad bdae | f2ba fedA | B2dB ABde | fafe fdAd|
fdad bdae | f2ba fede | "bm"fbba b3c' | d'bba "A"feee |
fdad bdae | f2ba fedA | B2dB ABde | fafe fedB|

